!!!OTL: 1532. Der fidele Bergmann.
!!!ARE: Europa, Mitteleuropa, Deutschland, Hessen, Ober - Lahn - Kreis;
!!    Dill - Kreis; Hannover, Bantorf
!!!SCT: E1532
!!!TXL: @@DE
!!!YEM: Copyright 1995, estate of Helmut Schaffrath.
**kern	**text
*ICvox	*
*M2/4	*
*k[f#]	*
*G:	*
=1	=1
!LO:TX:a:t=Munter.	!
!LO:TX:a:t=Oberlahn- und Dillkreis 1880 und Bantorf (Hannoveriſch 1879).	!
{8g	Berg-
8g	-leut
8g	ſind
8a	die
=2	=2
8f#	ſchön-
8e	-ſten
4d}	Leut,
=3	=3
{4e	ja,
4f#	ja,
=4	=4
4g	ja!
8r}	.
{8dd	Das
=5	=5
8cc	hö-
8b	-ret
8a	man
16aL	ja
16bJ	.
=6	=6
8cc	weit
8b	und
8a}	breit,
{16aL	daß
16bJ	.
=7	=7
8cc	Bergleut
8b	.
8a	ſind
8g	die
=8	=8
8f#	ſchönſten
8e	.
4d}	Leut,
=9	=9
{4g^^	ja,
4a^^	ja,
=10	=10
(8.ddL^^	ja.
16ee	.
8ddJ)}	.
{8cc	Glück
=11	=11
8b	auf!
8b	Vic-
8dd	-to-
8a	-ri-
=12	=12
4g	-a!
4r}	.
==	==
!!!AGN: Staende -, Bergmanns - Lied
!!!ONB: ESAC (Essen Associative Code) Database: ERK3
!!!AMT: simple duple
!!!AIN: vox
!!!EED: Helmut Schaffrath
!!!EEV: 1.0
!!!GTL: Staendelieder (Berufslieder). 5. Bergmannslieder.
!!!URL-scan: https://rosdok.uni-rostock.de/mcrviewer/recordIdentifier/rosdok_ppn745177999/iview2/phys_0376.iview2?x=-128.77276441889285&y=573.7651587002911&scale=0.5870222003877487&rotation=0&layout=singlePageLayout
!!!ENC: Anna Maria Matuszewska
!!!EEV: 2025/03/01
*-	*-
